!!!!SEGMENT: pl-cz--iii-197--007_elsner-jozef--missa-c-op-22-benedictus.krn
!!!cenid: 18xx:266
!!!COM: Elsner, Józef
!!!COM-rismid: pe30000957
!!!CDT: 1769/06/01-1854/04/18
!!!CNT: Polish
!!!OPR: Missa C op. 22
!!!OTL: Benedictus
!!!OMV: 007
!!!PDT:
!!!AGN: Sacred; Mass
!!!SMS-siglum: PL-CZ
!!!SMS-shelfmark: III-197
!!!SMS-shelfwork: 001-007 M
!!!NIFC-rismid:
!!!URL-scan: http://repozytorium.nifc.pl/skany/pl-cz-nut--iii-197
!!!ONB-nifc: UWAGA: części Mszy: Kyrie, Gloria, Graduale, Credo, Offertorio, Sanctus, Benedictus, Agnus
!!!AIN: 4 cor 5 empty 2 tenor 1 timpa
!!!key:
**kern	**kern	**text	**kern	**text	**kern	**text	**kern	**text	**kern	**kern	**kern	**kern	**kern	**kern	**kern
*part12	*part11	*part11	*part10	*part10	*part9	*part9	*part8	*part8	*part7	*part6	*part5	*part4	*part3	*part2	*part1
*staff12	*staff11	*staff11	*staff10	*staff10	*staff9	*staff9	*staff8	*staff8	*staff7	*staff6	*staff5	*staff4	*staff3	*staff2	*staff1
*group4	*group3	*	*group3	*	*group3	*	*group3	*	*group2	*group1	*group1	*group1	*group1	*group1	*group1
*Iempty	*Iempty	*	*Iempty	*	*Itenor	*	*Itenor	*	*Itimpa	*Iempty	*Iempty	*Icor	*Icor	*Icor	*Icor
*I"Baſso	*I"Baſso 2do	*	*I"Baſso 1mo	*	*I"Tenore 2do	*	*I"Tenore 1mo	*	*I"Tympano in C G	*I"Clarino 2do in C	*I"Clarino 1mo in C	*I"Corno 2do in C	*I"Corno 1mo in C	*I"Corno 2do in F	*I"Corno 1mo in F
*I'B	*I'B II	*	*I'B I	*	*I'T II	*	*I'T I	*	*I'Timp	*I'Clno II in C	*I'Clno I in C	*I'Cor II in C	*I'Cor I in C	*I'Cor II in F	*I'Cor I in F
*clefF4	*clefF4	*	*clefF4	*	*clefC4	*	*clefC4	*	*clefF4	*clefG2	*clefG2	*clefG2	*clefG2	*clefG2	*clefG2
*	*	*	*	*	*	*	*	*	*	*	*	*ITrd0c0	*ITrd0c0	*ITrd4c7	*ITrd4c7
*k[b-]	*k[b-]	*	*k[b-]	*	*k[b-]	*	*k[b-]	*	*k[b-]	*k[b-]	*k[b-]	*k[b-]	*k[b-]	*k[b-]	*k[b-]
*F:	*F:	*	*F:	*	*F:	*	*F:	*	*F:	*F:	*F:	*F:	*F:	*F:	*F:
*M2/4	*M2/4	*	*M2/4	*	*M2/4	*	*M2/4	*	*M2/4	*M2/4	*M2/4	*M2/4	*M2/4	*M2/4	*M2/4
=1	=1	=1	=1	=1	=1	=1	=1	=1	=1	=1	=1	=1	=1	=1	=1
*	*2\right	*	*	*	*	*	*	*	*	*	*	*	*	*	*
!LO:TX:b:t=53.	!LO:TX:a:t=problem:laseczki nut w dół z prawej strony	!	!LO:TX:b:t=7.	!	!	!	!	!	!	!	!	!LO:TX:b:t=53.	!LO:TX:b:t=53.	!LO:TX:b:t=53.	!LO:TX:a:t=53.
!LO:TX:a:B:t=Andantino	!LO:TX:a:B:t=Andantino	!	!LO:TX:a:B:t=Andantino	!	!LO:TX:a:B:t=Andantino	!	!LO:TX:a:B:t=Andantino	!	!LO:TX:a:t=problem:brak skanu	!LO:TX:a:B:t=Tacet.	!LO:TX:a:B:t=Tacet.	!LO:TX:a:B:t=Andantino	!LO:TX:a:B:t=Andantino	!LO:TX:a:B:t=Andantino	!LO:TX:a:B:t=Andantino
!	!	!	!LO:N:vis=00	!	!	!	!	!	!	!	!	!	!	!	!
2r	2F\	Be-	0r	.	4r	.	4r	.	2ryy	2ryy	2ryy	2r	2r	2r	2r
!	!	!	!	!	!LO:TX:a:t=problem:laseczki nut w dół z prawej strony	!	!LO:TX:a:t=problem:laseczki nut w dół z prawej strony	!	!	!	!	!	!	!	!
.	.	.	.	.	8A\	Be-	8f\	Be-	.	.	.	.	.	.	.
.	.	.	.	.	8A\	-ne-	8f\	-ne-	.	.	.	.	.	.	.
=2	=2	=2	=2	=2	=2	=2	=2	=2	=2	=2	=2	=2	=2	=2	=2
2r	2G\	-ne-	.	.	8B-\	-dic-	4f\	-dic-	2ryy	2ryy	2ryy	2r	2r	2r	2r
.	.	.	.	.	16B-\	-tus	.	.	.	.	.	.	.	.	.
.	.	.	.	.	16r	.	.	.	.	.	.	.	.	.	.
.	.	.	.	.	4B-\	qui	(16f\LL	.	.	.	.	.	.	.	.
.	.	.	.	.	.	.	16e\	.	.	.	.	.	.	.	.
.	.	.	.	.	.	.	16d\	.	.	.	.	.	.	.	.
.	.	.	.	.	.	.	16e\JJ)	.	.	.	.	.	.	.	.
=3	=3	=3	=3	=3	=3	=3	=3	=3	=3	=3	=3	=3	=3	=3	=3
2r	(4A\	-dic-	.	.	4c\	ve-	4f\	-tus	2ryy	2ryy	2ryy	2r	2r	2r	2r
.	4G\)	.	.	.	16c\LL	.	4r	.	.	.	.	.	.	.	.
.	.	.	.	.	16B-\	.	.	.	.	.	.	.	.	.	.
.	.	.	.	.	16A\	.	.	.	.	.	.	.	.	.	.
.	.	.	.	.	16B-\JJ	.	.	.	.	.	.	.	.	.	.
=4	=4	=4	=4	=4	=4	=4	=4	=4	=4	=4	=4	=4	=4	=4	=4
2r	8F\	-tus	.	.	16A\LL	-nit	4r	.	2ryy	2ryy	2ryy	2r	2r	2r	2r
.	.	.	.	.	16G\JJ	.	.	.	.	.	.	.	.	.	.
.	8r	.	.	.	16A\LL	in	.	.	.	.	.	.	.	.	.
.	.	.	.	.	16B-\JJ	.	.	.	.	.	.	.	.	.	.
.	8r	.	.	.	4c\	no-	8r	.	.	.	.	.	.	.	.
.	8A\	qui	.	.	.	.	8c\	Be-	.	.	.	.	.	.	.
=5	=5	=5	=5	=5	=5	=5	=5	=5	=5	=5	=5	=5	=5	=5	=5
!	!	!	!	!	!	!	!LO:LB:g=original	!	!	!	!	!	!	!	!
!	!	!	!LO:N:vis=0	!	!	!	!LO:TX:a:t=problem:niejednoznaczny zapis łuku	!	!	!	!	!	!	!	!
2r	4G\	ve-	1r	.	4B-\	-mi-	(8d\L	.	2ryy	2ryy	2ryy	2r	2r	2r	2r
.	.	.	.	.	.	.	8e\J)	.	.	.	.	.	.	.	.
.	4F\	-nit	.	.	4A\	-ne	16f\LL	.	.	.	.	.	.	.	.
.	.	.	.	.	.	.	16e\JJ	.	.	.	.	.	.	.	.
.	.	.	.	.	.	.	16d\LL	-ne-	.	.	.	.	.	.	.
.	.	.	.	.	.	.	16c\JJ	.	.	.	.	.	.	.	.
=6	=6	=6	=6	=6	=6	=6	=6	=6	=6	=6	=6	=6	=6	=6	=6
!	!	!	!	!	!LO:LB:g=original	!	!LO:TX:a:t=problem:niejednoznaczny zapis łuku	!	!	!	!	!	!	!	!
2r	4.E\	ve-	.	.	16A/LL	Do-	(16c\LL	-dic-	2ryy	2ryy	2ryy	2r	2r	2r	2r
.	.	.	.	.	16G/JJ	.	16B-\JJ	.	.	.	.	.	.	.	.
.	.	.	.	.	4G/	.	4B-\)	.	.	.	.	.	.	.	.
.	8F\	-nit	.	.	8F/	-mi-	8A\	.	.	.	.	.	.	.	.
=7	=7	=7	=7	=7	=7	=7	=7	=7	=7	=7	=7	=7	=7	=7	=7
2r	16F\LL	no-	2r	.	4c\	-ni	4G/	-tus	2ryy	2ryy	2ryy	2r	2r	2r	2r
.	16E\JJ	.	.	.	.	.	.	.	.	.	.	.	.	.	.
.	16D\	-mi-	.	.	.	.	.	.	.	.	.	.	.	.	.
.	16C\	-ne	.	.	.	.	.	.	.	.	.	.	.	.	.
.	16c\LL	Do-	.	.	8r	.	8r	.	.	.	.	.	.	.	.
.	16B-\JJ	.	.	.	.	.	.	.	.	.	.	.	.	.	.
.	16A\LL	-mi-	.	.	16c\	Be-	16c\	Be-	.	.	.	.	.	.	.
.	16G\JJ	.	.	.	16B-\	-ne-	16e\	-ne-	.	.	.	.	.	.	.
=8	=8	=8	=8	=8	=8	=8	=8	=8	=8	=8	=8	=8	=8	=8	=8
*	*	*	*2\right	*	*	*	*	*	*	*	*	*	*	*	*
!	!LO:LB:g=original	!	!	!	!	!	!	!	!	!	!	!	!	!	!
2r	4F\	-ni	2F\	Be-	8A\	-dic-	8f\	-dic-	2ryy	2ryy	2ryy	2r	2r	2r	2r
.	.	.	.	.	16A\	-tus	16f\	-tus	.	.	.	.	.	.	.
.	.	.	.	.	16r	.	16r	.	.	.	.	.	.	.	.
.	8F\	be-	.	.	4r	.	8r	.	.	.	.	.	.	.	.
.	8F\	-ne-	.	.	.	.	8A\	qui	.	.	.	.	.	.	.
=9	=9	=9	=9	=9	=9	=9	=9	=9	=9	=9	=9	=9	=9	=9	=9
!	!	!	!	!	!LO:TX:a:t=1.	!	!	!	!	!	!	!	!	!	!
2r	4F\	-dic-	2G\	-ne-	2r	.	8B-\	ve-	2ryy	2ryy	2ryy	2r	2r	2r	2r
.	.	.	.	.	.	.	16B-\	-nit	.	.	.	.	.	.	.
.	.	.	.	.	.	.	16r	.	.	.	.	.	.	.	.
.	16F\LL	.	.	.	.	.	4r	.	.	.	.	.	.	.	.
.	16E\	.	.	.	.	.	.	.	.	.	.	.	.	.	.
.	16D\	.	.	.	.	.	.	.	.	.	.	.	.	.	.
.	16E\JJ	.	.	.	.	.	.	.	.	.	.	.	.	.	.
=10	=10	=10	=10	=10	=10	=10	=10	=10	=10	=10	=10	=10	=10	=10	=10
2r	16F/LL	.	(4A\	-dic-	8r	.	4r	.	2ryy	2ryy	2ryy	2r	2r	2r	2r
.	16E/	.	.	.	.	.	.	.	.	.	.	.	.	.	.
.	16D/	.	.	.	8F/	qui	.	.	.	.	.	.	.	.	.
.	16C/JJ	.	.	.	.	.	.	.	.	.	.	.	.	.	.
.	16BB-/LL	-tus	4G\)	.	8F/L	ve-	8r	.	.	.	.	.	.	.	.
.	16GG/JJ	.	.	.	.	.	.	.	.	.	.	.	.	.	.
.	16C/LL	qui	.	.	8E/J	.	8c\	qui	.	.	.	.	.	.	.
.	16BB-/JJ	.	.	.	.	.	.	.	.	.	.	.	.	.	.
=11	=11	=11	=11	=11	=11	=11	=11	=11	=11	=11	=11	=11	=11	=11	=11
!	!	!	!	!	!	!	!LO:LB:g=original	!	!	!	!	!	!	!	!
2r	16AA/LL	ve-	4F\	-tus	4F/	-nit	16c\LL	ve-	2ryy	2ryy	2ryy	2r	2r	2r	2r
.	16BB-/	.	.	.	.	.	16d\	.	.	.	.	.	.	.	.
.	16AA/	.	.	.	.	.	16c\	.	.	.	.	.	.	.	.
.	16GG/JJ	.	.	.	.	.	16B-\JJ	.	.	.	.	.	.	.	.
.	8FF/	-nit	8r	.	4r	.	16A\LL	.	.	.	.	.	.	.	.
.	.	.	.	.	.	.	16f\	.	.	.	.	.	.	.	.
.	8F\	in	8A\	qui	.	.	16e\	.	.	.	.	.	.	.	.
.	.	.	.	.	.	.	16d\JJ	.	.	.	.	.	.	.	.
=12	=12	=12	=12	=12	=12	=12	=12	=12	=12	=12	=12	=12	=12	=12	=12
!	!	!	!LO:LB:g=original	!	!	!	!	!	!	!	!	!	!	!	!
2r	16E\LL	no-	4G\	ve-	8r	.	4c\	-nit	2ryy	2ryy	2ryy	2r	2r	2r	2r
.	16C\	.	.	.	.	.	.	.	.	.	.	.	.	.	.
.	16D\	.	.	.	8B-\	qui	.	.	.	.	.	.	.	.	.
.	16E\JJ	.	.	.	.	.	.	.	.	.	.	.	.	.	.
.	8.D\L	.	4F\	.	16c\LL	ve-	4r	.	.	.	.	.	.	.	.
.	.	.	.	.	16Bn\JJ	.	.	.	.	.	.	.	.	.	.
.	.	.	.	.	16A\LL	.	.	.	.	.	.	.	.	.	.
.	16G\Jk	.	.	.	16B\JJ	.	.	.	.	.	.	.	.	.	.
=13	=13	=13	=13	=13	=13	=13	=13	=13	=13	=13	=13	=13	=13	=13	=13
!	!	!	!	!	!LO:LB:g=original	!	!	!	!	!	!	!	!	!	!
2r	16G\LL	-mi-	4.E\	-nit	4c\	-nit	4r	.	2ryy	2ryy	2ryy	2r	2r	2r	2r
.	16C\	.	.	.	.	.	.	.	.	.	.	.	.	.	.
.	16E\	.	.	.	.	.	.	.	.	.	.	.	.	.	.
.	16G\JJ	.	.	.	.	.	.	.	.	.	.	.	.	.	.
!	!LO:TX:a:t=problem:laseczka ósemki z lewej strony	!	!	!	!	!	!	!	!	!	!	!	!	!	!
.	8c\	-ne	.	.	8r	.	8r	.	.	.	.	.	.	.	.
.	8G#X\	Do-	8F\	in	16Bn\	Be-	16d\	Be-	.	.	.	.	.	.	.
.	.	.	.	.	16B\	-ne-	16d\	-ne-	.	.	.	.	.	.	.
=14	=14	=14	=14	=14	=14	=14	=14	=14	=14	=14	=14	=14	=14	=14	=14
!	!LO:LB:g=original	!	!	!	!	!	!	!	!	!	!	!	!	!	!
2r	4A\	.	16F\LL	no-	8c\	-dic-	8c\	-dic-	2ryy	2ryy	2ryy	2r	2r	2r	2r
.	.	.	16E\JJ	.	.	.	.	.	.	.	.	.	.	.	.
.	.	.	16D\	-mi-	16c\	-tus	16c\	-tus	.	.	.	.	.	.	.
.	.	.	16C\	-ne	16r	.	16r	.	.	.	.	.	.	.	.
!	!	!	!LO:TX:a:t=problem:laseczka ósemki z kropką z lewej strony	!	!	!	!	!	!	!	!	!	!	!	!
.	4E\	-mi-	8.c\	Do-	4r	.	4r	.	.	.	.	.	.	.	.
.	.	.	16B-\	-mi-	.	.	.	.	.	.	.	.	.	.	.
=15	=15	=15	=15	=15	=15	=15	=15	=15	=15	=15	=15	=15	=15	=15	=15
!	!	!	!	!	!	!	!LO:TX:a:t=2.	!	!	!	!	!	!	!	!
!	!	!	!	!	!	!	!LO:N:vis=0	!	!	!	!	!	!	!	!
2r	2F\	-ni	4A\	-ni	2F/	Be-	1r	.	2ryy	2ryy	2ryy	2r	2r	2r	2r
.	.	.	8F\	Be-	.	.	.	.	.	.	.	.	.	.	.
.	.	.	8F\	-ne-	.	.	.	.	.	.	.	.	.	.	.
=16	=16	=16	=16	=16	=16	=16	=16	=16	=16	=16	=16	=16	=16	=16	=16
2r	4.C/	Do-	4F\	-dic-	2G/	-ne-	.	.	2ryy	2ryy	2ryy	2r	2r	2r	2r
.	.	.	16F\LL	.	.	.	.	.	.	.	.	.	.	.	.
.	.	.	16E\	.	.	.	.	.	.	.	.	.	.	.	.
.	8C/	-mi-	16D\	.	.	.	.	.	.	.	.	.	.	.	.
.	.	.	16E\JJ	.	.	.	.	.	.	.	.	.	.	.	.
=17	=17	=17	=17	=17	=17	=17	=17	=17	=17	=17	=17	=17	=17	=17	=17
2r	4FF/	-ni	16F\LL	.	(4A\	-dic-	8r	.	2ryy	2ryy	2ryy	2r	2r	2r	2r
.	.	.	16E\	.	.	.	.	.	.	.	.	.	.	.	.
.	.	.	16D\	.	.	.	8F/	qui	.	.	.	.	.	.	.
.	.	.	16C\JJ	.	.	.	.	.	.	.	.	.	.	.	.
.	4r	.	16BB-/LL	-tus	4G\)	.	8F/L	ve-	.	.	.	.	.	.	.
.	.	.	16GG/JJ	.	.	.	.	.	.	.	.	.	.	.	.
.	.	.	16C/LL	qui	.	.	8E/J	.	.	.	.	.	.	.	.
.	.	.	16BB-/JJ	.	.	.	.	.	.	.	.	.	.	.	.
=18	=18	=18	=18	=18	=18	=18	=18	=18	=18	=18	=18	=18	=18	=18	=18
!	!LO:TX:a:t=1.	!	!LO:LB:g=original	!	!	!	!	!	!	!	!	!	!	!	!
2r	2r	.	16AA/LL	ve-	4F/	-tus	16F/LL	.	2ryy	2ryy	2ryy	2r	2r	2r	2r
.	.	.	16BB-/	.	.	.	16d/	.	.	.	.	.	.	.	.
.	.	.	16AA/	.	.	.	16c/	.	.	.	.	.	.	.	.
.	.	.	16GG/JJ	.	.	.	16B-/JJ	.	.	.	.	.	.	.	.
.	.	.	8FF/	-nit	8r	.	8A/L	.	.	.	.	.	.	.	.
.	.	.	8F\	in	8A\	qui	16d/L	.	.	.	.	.	.	.	.
.	.	.	.	.	.	.	16c/JJ	.	.	.	.	.	.	.	.
=19	=19	=19	=19	=19	=19	=19	=19	=19	=19	=19	=19	=19	=19	=19	=19
!	!	!	!	!	!	!	!LO:LB:g=original	!	!	!	!	!	!	!	!
2r	8r	.	16E\LL	no-	(>4G/	ve-	8c\	-nit	2ryy	2ryy	2ryy	2r	2r	2r	2r
.	.	.	16C\	.	.	.	.	.	.	.	.	.	.	.	.
.	8C/	in	16D\	.	.	.	8r	.	.	.	.	.	.	.	.
.	.	.	16E\JJ	.	.	.	.	.	.	.	.	.	.	.	.
.	16C/LL	no-	8.D\L	.	4F/)	.	8r	.	.	.	.	.	.	.	.
.	16BBn/JJ	.	.	.	.	.	.	.	.	.	.	.	.	.	.
.	16AA/LL	-mi-	.	.	.	.	8d\	qui	.	.	.	.	.	.	.
.	16BB/JJ	.	16G\Jk	.	.	.	.	.	.	.	.	.	.	.	.
=20	=20	=20	=20	=20	=20	=20	=20	=20	=20	=20	=20	=20	=20	=20	=20
2r	4C/	-ne	16G\LL	-mi-	4.E/	-nit	8c\	ve-	2ryy	2ryy	2ryy	2r	2r	2r	2r
.	.	.	16C\	.	.	.	.	.	.	.	.	.	.	.	.
.	.	.	16E\	.	.	.	16c\	-nit	.	.	.	.	.	.	.
.	.	.	16G\JJ	.	.	.	16r	.	.	.	.	.	.	.	.
.	8r	.	8.c\	-ne	.	.	8r	.	.	.	.	.	.	.	.
.	8BBn/	qui	.	.	8F/	in	8d\	qui	.	.	.	.	.	.	.
.	.	.	16G#X\	Do-	.	.	.	.	.	.	.	.	.	.	.
=21	=21	=21	=21	=21	=21	=21	=21	=21	=21	=21	=21	=21	=21	=21	=21
2r	4.C/	ve-	4A\	.	16F/LL	no-	8c\	ve-	2ryy	2ryy	2ryy	2r	2r	2r	2r
.	.	.	.	.	16E/JJ	.	.	.	.	.	.	.	.	.	.
.	.	.	.	.	16D/	-mi-	16c\	-nit	.	.	.	.	.	.	.
.	.	.	.	.	16C/	-ne	16r	.	.	.	.	.	.	.	.
.	.	.	4E\	-mi-	8.c\	Do-	4r	.	.	.	.	.	.	.	.
.	8C/	-nit	.	.	.	.	.	.	.	.	.	.	.	.	.
.	.	.	.	.	16B-\	-mi-	.	.	.	.	.	.	.	.	.
=22	=22	=22	=22	=22	=22	=22	=22	=22	=22	=22	=22	=22	=22	=22	=22
!	!	!	!	!	!LO:LB:g=original	!	!	!	!	!	!	!	!	!	!
2r	2F\	in	4F\	-ni	4A\	-ni	16f\LL	Be-	2ryy	2ryy	2ryy	2r	2r	2r	2r
.	.	.	.	.	.	.	16e\	.	.	.	.	.	.	.	.
.	.	.	.	.	.	.	16d\	.	.	.	.	.	.	.	.
.	.	.	.	.	.	.	16c\JJ	.	.	.	.	.	.	.	.
.	.	.	4r	.	16G#X\LL	Be-	16Bn\LL	-ne-	.	.	.	.	.	.	.
.	.	.	.	.	16A\	.	16c\	.	.	.	.	.	.	.	.
.	.	.	.	.	16B-\	-ne-	16d\	.	.	.	.	.	.	.	.
.	.	.	.	.	16A\JJ	.	16c\JJ	.	.	.	.	.	.	.	.
=23	=23	=23	=23	=23	=23	=23	=23	=23	=23	=23	=23	=23	=23	=23	=23
2r	4E\	no-	4r	.	16A\LL	-dic-	16c\LL	-dic-	2ryy	2ryy	2ryy	2r	2r	2r	2r
.	.	.	.	.	16Gn\JJ	.	16B-X\JJ	.	.	.	.	.	.	.	.
.	.	.	.	.	4G/	-tus	4B-\	.	.	.	.	.	.	.	.
.	4F\	-mi-	8r	.	.	.	.	.	.	.	.	.	.	.	.
!	!	!	!LO:N:vis=4	!	!	!	!	!	!	!	!	!	!	!	!
.	.	.	8F\	Be-	8F/	qui	8A\	.	.	.	.	.	.	.	.
=24	=24	=24	=24	=24	=24	=24	=24	=24	=24	=24	=24	=24	=24	=24	=24
!	!LO:LB:g=original	!	!LO:LB:g=original	!	!	!	!	!	!	!	!	!	!	!	!
2r	4.C/	-ne	16E\LL	.	16G/LL	ve-	4G/	-tus	2ryy	2ryy	2ryy	2r	2r	2r	2r
.	.	.	16D\	.	16F/	.	.	.	.	.	.	.	.	.	.
.	.	.	16C\	.	16E/	.	.	.	.	.	.	.	.	.	.
.	.	.	16D\JJ	.	16F/JJ	.	.	.	.	.	.	.	.	.	.
.	.	.	16E\LL	-ne-	16G/LL	.	4r	.	.	.	.	.	.	.	.
.	.	.	16G\	.	16B-/	.	.	.	.	.	.	.	.	.	.
.	8C/	in	16F\	.	16A/	.	.	.	.	.	.	.	.	.	.
.	.	.	16E\JJ	.	16G/JJ	.	.	.	.	.	.	.	.	.	.
=25	=25	=25	=25	=25	=25	=25	=25	=25	=25	=25	=25	=25	=25	=25	=25
!	!	!	!	!	!	!	!LO:LB:g=original	!	!	!	!	!	!	!	!
2r	2F\	no-	8F\	-dic-	4A\	-nit	16f\LL	Be-	2ryy	2ryy	2ryy	2r	2r	2r	2r
.	.	.	.	.	.	.	16e\	.	.	.	.	.	.	.	.
.	.	.	16F\	-tus	.	.	16d\	.	.	.	.	.	.	.	.
.	.	.	16r	.	.	.	16c\JJ	.	.	.	.	.	.	.	.
.	.	.	4r	.	16G#X/LL	be-	16Bn\LL	-ne-	.	.	.	.	.	.	.
.	.	.	.	.	16A/	.	16c\	.	.	.	.	.	.	.	.
.	.	.	.	.	16B-/	.	16d\	.	.	.	.	.	.	.	.
.	.	.	.	.	16A/JJ	.	16c\JJ	.	.	.	.	.	.	.	.
=26	=26	=26	=26	=26	=26	=26	=26	=26	=26	=26	=26	=26	=26	=26	=26
2r	4E\	-mi-	4r	.	16A/LL	-ne-	16c\LL	-dic-	2ryy	2ryy	2ryy	2r	2r	2r	2r
.	.	.	.	.	16Gn/JJ	-dic-	16B-X\JJ	.	.	.	.	.	.	.	.
.	.	.	.	.	4G/	-tus	4B-\	.	.	.	.	.	.	.	.
.	4F\	-ne	8r	.	.	.	.	.	.	.	.	.	.	.	.
.	.	.	8F\	Be-	8F/	be-	8A\	.	.	.	.	.	.	.	.
=27	=27	=27	=27	=27	=27	=27	=27	=27	=27	=27	=27	=27	=27	=27	=27
!	!	!	!	!	!LO:LB:g=original	!	!	!	!	!	!	!	!	!	!
2r	4C/	no-	16E\LL	.	16G/LL	.	4G/	-tus	2ryy	2ryy	2ryy	2r	2r	2r	2r
.	.	.	16D\	.	16F/	.	.	.	.	.	.	.	.	.	.
.	.	.	16C\	.	16E/	.	.	.	.	.	.	.	.	.	.
.	.	.	16D\JJ	.	16F/JJ	.	.	.	.	.	.	.	.	.	.
.	8C/	-mi-	16E\LL	-ne-	16G/LL	.	4r	.	.	.	.	.	.	.	.
.	.	.	16G\	.	16B-/	.	.	.	.	.	.	.	.	.	.
.	8C/	-ne	16F\	.	16A/	.	.	.	.	.	.	.	.	.	.
.	.	.	16E\JJ	.	16G/JJ	.	.	.	.	.	.	.	.	.	.
=28	=28	=28	=28	=28	=28	=28	=28	=28	=28	=28	=28	=28	=28	=28	=28
2r	4F\	Do-	2F\	-dic-	4A\	-ne-	16f\LL	Be-	2ryy	2ryy	2ryy	2r	2r	2r	2r
.	.	.	.	.	.	.	16e\	.	.	.	.	.	.	.	.
.	.	.	.	.	.	.	16d\	.	.	.	.	.	.	.	.
.	.	.	.	.	.	.	16c\JJ	.	.	.	.	.	.	.	.
.	4D\	-mi-	.	.	4F\	-dic-	16c\LL	.	.	.	.	.	.	.	.
.	.	.	.	.	.	.	16Bn\	.	.	.	.	.	.	.	.
.	.	.	.	.	.	.	16A\	.	.	.	.	.	.	.	.
.	.	.	.	.	.	.	16B\JJ	.	.	.	.	.	.	.	.
=29	=29	=29	=29	=29	=29	=29	=29	=29	=29	=29	=29	=29	=29	=29	=29
*	*	*	*	*	*	*	*2\right	*	*	*	*	*	*	*	*
2r	4C/	-ni	4E\	-tus	4G/	-tus,	2c\	.	2ryy	2ryy	2ryy	2r	2r	2r	2r
.	4r	.	4E\	qui	8c\	be-	.	.	.	.	.	.	.	.	.
.	.	.	.	.	8c\	-ne-	.	.	.	.	.	.	.	.	.
=30	=30	=30	=30	=30	=30	=30	=30	=30	=30	=30	=30	=30	=30	=30	=30
!	!LO:TX:a:t=1	!	!LO:LB:g=original	!	!	!	!	!	!	!	!	!	!	!	!
2r	2r	.	8G\	ve-	[4c\	-dic-	2d\	-ne-	2ryy	2ryy	2ryy	2r	2r	2r	2r
.	.	.	16G\	-nit	.	.	.	.	.	.	.	.	.	.	.
.	.	.	16G\	qui	.	.	.	.	.	.	.	.	.	.	.
.	.	.	4G\	ve-	16c\LL]	.	.	.	.	.	.	.	.	.	.
.	.	.	.	.	16Bn\	.	.	.	.	.	.	.	.	.	.
.	.	.	.	.	16A\	.	.	.	.	.	.	.	.	.	.
.	.	.	.	.	16B\JJ	.	.	.	.	.	.	.	.	.	.
=31	=31	=31	=31	=31	=31	=31	=31	=31	=31	=31	=31	=31	=31	=31	=31
2r	8r	.	4C/	-nit	16c\LL	.	(4e\	-dic-	2ryy	2ryy	2ryy	2r	2r	2r	2r
.	.	.	.	.	16Bn\	.	.	.	.	.	.	.	.	.	.
.	8C/	qui	.	.	16A\	.	.	.	.	.	.	.	.	.	.
.	.	.	.	.	16G\JJ	.	.	.	.	.	.	.	.	.	.
.	8C/L	ve-	4r	.	(16F/LL	-tus,	4d\)	.	.	.	.	.	.	.	.
.	.	.	.	.	16D/)	.	.	.	.	.	.	.	.	.	.
.	8BBn/J	.	.	.	(16G/	qui	.	.	.	.	.	.	.	.	.
.	.	.	.	.	16F/JJ)	.	.	.	.	.	.	.	.	.	.
=32	=32	=32	=32	=32	=32	=32	=32	=32	=32	=32	=32	=32	=32	=32	=32
!	!	!	!	!	!	!	!LO:PB:g=original	!	!	!	!	!	!	!	!
2r	4C/	-nit	4r	.	16E/LL	ve-	4c\	-tus	2ryy	2ryy	2ryy	2r	2r	2r	2r
.	.	.	.	.	16F/	.	.	.	.	.	.	.	.	.	.
.	.	.	.	.	16E/	.	.	.	.	.	.	.	.	.	.
.	.	.	.	.	16D/JJ	.	.	.	.	.	.	.	.	.	.
.	4r	.	8r	.	8C/	-nit	8r	.	.	.	.	.	.	.	.
.	.	.	8C/	in	8r	.	8e\	qui	.	.	.	.	.	.	.
=33	=33	=33	=33	=33	=33	=33	=33	=33	=33	=33	=33	=33	=33	=33	=33
!	!LO:TX:a:t=1.	!	!	!	!	!	!	!	!	!	!	!	!	!	!
2r	2r	.	16BBn/LL	no-	8r	.	4d\	ve-	2ryy	2ryy	2ryy	2r	2r	2r	2r
.	.	.	16GG/	.	.	.	.	.	.	.	.	.	.	.	.
.	.	.	16AA/	-mi-	8G/	in	.	.	.	.	.	.	.	.	.
.	.	.	16BB/JJ	.	.	.	.	.	.	.	.	.	.	.	.
.	.	.	8.AA/	-ne	16G/LL	no-	4c\	.	.	.	.	.	.	.	.
.	.	.	.	.	16F#X/	.	.	.	.	.	.	.	.	.	.
.	.	.	.	.	16E/	-mi-	.	.	.	.	.	.	.	.	.
.	.	.	16D/	Do-	16F#/JJ	.	.	.	.	.	.	.	.	.	.
=34	=34	=34	=34	=34	=34	=34	=34	=34	=34	=34	=34	=34	=34	=34	=34
!	!LO:PB:g=original	!	!	!	!	!	!	!	!	!	!	!	!	!	!
2r	4r	.	16D/LL	.	4.G/	-ne	4.Bn\	-nit	2ryy	2ryy	2ryy	2r	2r	2r	2r
.	.	.	16GG/	.	.	.	.	.	.	.	.	.	.	.	.
.	.	.	16BBn/	-mi-	.	.	.	.	.	.	.	.	.	.	.
.	.	.	16D/JJ	.	.	.	.	.	.	.	.	.	.	.	.
.	8r	.	8G\	-ni	.	.	.	.	.	.	.	.	.	.	.
.	8FF#X/	qui	8D#X\	qui	8A/	qui	8c\	in	.	.	.	.	.	.	.
=35	=35	=35	=35	=35	=35	=35	=35	=35	=35	=35	=35	=35	=35	=35	=35
!	!	!	!LO:PB:g=original	!	!LO:LB:g=original	!	!	!	!	!	!	!	!	!	!
2r	2GG/	ve-	4E\	ve-	4.G/	ve-	16c\LL	no-	2ryy	2ryy	2ryy	2r	2r	2r	2r
.	.	.	.	.	.	.	16Bn\JJ	.	.	.	.	.	.	.	.
.	.	.	.	.	.	.	16A\	-mi-	.	.	.	.	.	.	.
.	.	.	.	.	.	.	16G\	-ne	.	.	.	.	.	.	.
.	.	.	4BBn/	-nit	.	.	16g\LL	Do-	.	.	.	.	.	.	.
.	.	.	.	.	.	.	16f\JJ	.	.	.	.	.	.	.	.
.	.	.	.	.	8Fn/	-nit	16e\LL	-mi-	.	.	.	.	.	.	.
.	.	.	.	.	.	.	16d\JJ	.	.	.	.	.	.	.	.
=36	=36	=36	=36	=36	=36	=36	=36	=36	=36	=36	=36	=36	=36	=36	=36
2r	4C/	-nit	2C/	Be-	2E/	Be-	4c\	-ni	2ryy	2ryy	2ryy	2r	2r	2r	2r
.	4r	.	.	.	.	.	8c\	Be-	.	.	.	.	.	.	.
.	.	.	.	.	.	.	8c\	-ne-	.	.	.	.	.	.	.
=37	=37	=37	=37	=37	=37	=37	=37	=37	=37	=37	=37	=37	=37	=37	=37
!	!LO:TX:a:t=1.	!	!	!	!	!	!	!	!	!	!	!	!	!	!
2r	2r	.	2D\	-ne-	2F/	-ne-	4c\	-dic-	2ryy	2ryy	2ryy	2r	2r	2r	2r
.	.	.	.	.	.	.	(16c\LL	.	.	.	.	.	.	.	.
.	.	.	.	.	.	.	16Bn\	.	.	.	.	.	.	.	.
.	.	.	.	.	.	.	16A\	.	.	.	.	.	.	.	.
.	.	.	.	.	.	.	16B\JJ)	.	.	.	.	.	.	.	.
=38	=38	=38	=38	=38	=38	=38	=38	=38	=38	=38	=38	=38	=38	=38	=38
!	!	!	!	!	!	!	!LO:LB:g=original	!	!	!	!	!	!	!	!
2r	8r	.	(4E\	-dic-	8G/	-dic-	16c\LL	.	2ryy	2ryy	2ryy	2r	2r	2r	2r
.	.	.	.	.	.	.	16Bn\	.	.	.	.	.	.	.	.
.	8C/	in	.	.	4A/	-tus	16A\	.	.	.	.	.	.	.	.
.	.	.	.	.	.	.	16G\JJ	.	.	.	.	.	.	.	.
.	16C/LL	no-	4D\)	.	.	.	16F/LL	-tus	.	.	.	.	.	.	.
.	16BBn/JJ	.	.	.	.	.	16D/	.	.	.	.	.	.	.	.
.	16AA/LL	-mi-	.	.	8G/	qui	16G/	qui	.	.	.	.	.	.	.
.	16BB/JJ	.	.	.	.	.	16F/JJ	.	.	.	.	.	.	.	.
=39	=39	=39	=39	=39	=39	=39	=39	=39	=39	=39	=39	=39	=39	=39	=39
2r	4C/	-ne	4.C\	.	16G/LL	ve-	16E/LL	ve-	2ryy	2ryy	2ryy	2r	2r	2r	2r
.	.	.	.	.	16A/	.	16F/	.	.	.	.	.	.	.	.
.	.	.	.	.	16G/	.	16E/	.	.	.	.	.	.	.	.
.	.	.	.	.	16F/JJ	.	16D/JJ	.	.	.	.	.	.	.	.
.	16C/LL	Do-	.	.	8E/	-nit	8C/	-nit	.	.	.	.	.	.	.
.	16BB-X/	.	.	.	.	.	.	.	.	.	.	.	.	.	.
.	16AA/	-mi-	16D\LL	.	8r	.	16c\LL	in	.	.	.	.	.	.	.
.	16GG/JJ	.	16E\JJ	.	.	.	16B-X\JJ	.	.	.	.	.	.	.	.
=40	=40	=40	=40	=40	=40	=40	=40	=40	=40	=40	=40	=40	=40	=40	=40
2r	4FF/	-ne	4F\	-tus	2F/	Be-	2A\	no-	2ryy	2ryy	2ryy	2r	2r	2r	2r
.	8F\	be-	4r	.	.	.	.	.	.	.	.	.	.	.	.
.	8F\	-ne-	.	.	.	.	.	.	.	.	.	.	.	.	.
=41	=41	=41	=41	=41	=41	=41	=41	=41	=41	=41	=41	=41	=41	=41	=41
!	!	!	!LO:TX:a:t=1.	!	!	!	!	!	!	!	!	!	!	!	!
2r	[4F\	-dic-	2r	.	2G/	-ne-	2B-\	-mi-	2ryy	2ryy	2ryy	2r	2r	2r	2r
.	16F\LL]	.	.	.	.	.	.	.	.	.	.	.	.	.	.
.	16E\	.	.	.	.	.	.	.	.	.	.	.	.	.	.
.	16D\	.	.	.	.	.	.	.	.	.	.	.	.	.	.
.	16E\JJ	.	.	.	.	.	.	.	.	.	.	.	.	.	.
=42	=42	=42	=42	=42	=42	=42	=42	=42	=42	=42	=42	=42	=42	=42	=42
2r	16F\LL	.	8r	.	(>4A/	-dic-	8A\	-ne	2ryy	2ryy	2ryy	2r	2r	2r	2r
.	16E\	.	.	.	.	.	.	.	.	.	.	.	.	.	.
.	16D\	.	8F\	qui	.	.	4d\	Do-	.	.	.	.	.	.	.
.	16C\JJ	.	.	.	.	.	.	.	.	.	.	.	.	.	.
.	16BB-/LL	-tus	8F\L	ve-	4G/)	.	.	.	.	.	.	.	.	.	.
.	16GG/JJ	.	.	.	.	.	.	.	.	.	.	.	.	.	.
.	16C/LL	qui	8E\J	.	.	.	8c\	-mi-	.	.	.	.	.	.	.
.	16BB-/JJ	.	.	.	.	.	.	.	.	.	.	.	.	.	.
=43	=43	=43	=43	=43	=43	=43	=43	=43	=43	=43	=43	=43	=43	=43	=43
!	!LO:LB:g=original	!	!	!	!	!	!	!	!	!	!	!	!	!	!
2r	16AA/LL	ve-	4F\	-nit	4F/	-tus	16c\LL	-ni	2ryy	2ryy	2ryy	2r	2r	2r	2r
.	16BB-/	.	.	.	.	.	16d\	.	.	.	.	.	.	.	.
.	16AA/	.	.	.	.	.	16c\	.	.	.	.	.	.	.	.
.	16GG/JJ	.	.	.	.	.	16B-\JJ	.	.	.	.	.	.	.	.
.	8FF/	-nit	16F\LL	in	8r	.	8A\L	Be-	.	.	.	.	.	.	.
.	.	.	16G\	.	.	.	.	.	.	.	.	.	.	.	.
.	8r	.	16F\	.	8G/	qui	16Bn\L	.	.	.	.	.	.	.	.
.	.	.	16E\JJ	.	.	.	16c#X\JJ	.	.	.	.	.	.	.	.
=44	=44	=44	=44	=44	=44	=44	=44	=44	=44	=44	=44	=44	=44	=44	=44
!	!LO:TX:a:t=3.	!	!LO:LB:g=original	!	!	!	!LO:TX:a:t=problem:niejednoznaczny zapis łuku	!	!	!	!	!	!	!	!
!	!LO:N:vis=0	!	!	!	!	!	!	!	!	!	!	!	!	!	!
2r	1r	.	4D\	no-	2F/	ve-	(2d\	.	2ryy	2ryy	2ryy	2r	2r	2r	2r
.	.	.	8D\	-mi-	.	.	.	.	.	.	.	.	.	.	.
.	.	.	8D\	-ne	.	.	.	.	.	.	.	.	.	.	.
=45	=45	=45	=45	=45	=45	=45	=45	=45	=45	=45	=45	=45	=45	=45	=45
!	!	!	!	!	!LO:LB:g=original	!	!LO:LB:g=original	!	!	!	!	!	!	!	!
2r	.	.	4D\	Do-	4.A\	-nit	2e\)	-ne-	2ryy	2ryy	2ryy	2r	2r	2r	2r
.	.	.	16D\LL	.	.	.	.	.	.	.	.	.	.	.	.
.	.	.	16C#X\	.	.	.	.	.	.	.	.	.	.	.	.
.	.	.	16BBn\	.	8A\	in	.	.	.	.	.	.	.	.	.
.	.	.	16C#\JJ	.	.	.	.	.	.	.	.	.	.	.	.
=46	=46	=46	=46	=46	=46	=46	=46	=46	=46	=46	=46	=46	=46	=46	=46
2r	2r	.	16D/LL	.	(8A\	no-	4f\	-dic-	2ryy	2ryy	2ryy	2r	2r	2r	2r
.	.	.	16C/	.	.	.	.	.	.	.	.	.	.	.	.
.	.	.	16BB-X/	-mi-	4d\	.	.	.	.	.	.	.	.	.	.
.	.	.	16AA/JJ	.	.	.	.	.	.	.	.	.	.	.	.
.	.	.	8GG/L	-ni	.	.	4e\	-tus	.	.	.	.	.	.	.
.	.	.	8AA/J	qui	8c#X\)	-mi-	.	.	.	.	.	.	.	.	.
=47	=47	=47	=47	=47	=47	=47	=47	=47	=47	=47	=47	=47	=47	=47	=47
*	*	*	*	*	*2\right	*	*	*	*	*	*	*	*	*	*
2r	2BB-/	Be-	4BB-/	ve-	2d\	-ne	4d\	qui	2ryy	2ryy	2ryy	2r	2r	2r	2r
.	.	.	8BB-/	-nit	.	.	8r	.	.	.	.	.	.	.	.
.	.	.	8r	.	.	.	8B-\	ve-	.	.	.	.	.	.	.
=48	=48	=48	=48	=48	=48	=48	=48	=48	=48	=48	=48	=48	=48	=48	=48
!	!	!	!LO:TX:a:t=1.	!	!	!	!	!	!	!	!	!	!	!	!
2r	2C/	-ne-	2r	.	2e-X\	Do-	4B-\	.	2ryy	2ryy	2ryy	2r	2r	2r	2r
!	!	!	!	!	!	!	!LO:TX:a:t=problem:niejednoznaczny zapis łuku	!	!	!	!	!	!	!	!
.	.	.	.	.	.	.	(16B-\LL	.	.	.	.	.	.	.	.
.	.	.	.	.	.	.	16A\	.	.	.	.	.	.	.	.
.	.	.	.	.	.	.	16G\	.	.	.	.	.	.	.	.
.	.	.	.	.	.	.	16A\JJ)	.	.	.	.	.	.	.	.
=49	=49	=49	=49	=49	=49	=49	=49	=49	=49	=49	=49	=49	=49	=49	=49
2r	4D\	-dic-	8r	.	4f\	.	4B-\	-nit	2ryy	2ryy	2ryy	2r	2r	2r	2r
.	.	.	4B-\	in	.	.	.	.	.	.	.	.	.	.	.
.	4C\	.	.	.	4e-X\	.	4r	.	.	.	.	.	.	.	.
.	.	.	8A\	.	.	.	.	.	.	.	.	.	.	.	.
=50	=50	=50	=50	=50	=50	=50	=50	=50	=50	=50	=50	=50	=50	=50	=50
2r	4BB-/	-tus	4B-\	no-	16d\LL	.	4r	.	2ryy	2ryy	2ryy	2r	2r	2r	2r
.	.	.	.	.	16e-X\JJ	.	.	.	.	.	.	.	.	.	.
.	.	.	.	.	16d\LL	-mi-	.	.	.	.	.	.	.	.	.
.	.	.	.	.	16c\JJ	.	.	.	.	.	.	.	.	.	.
.	4FF/	qui	16B-\LL	.	8B-\	-ni	8r	.	.	.	.	.	.	.	.
.	.	.	16c\	.	.	.	.	.	.	.	.	.	.	.	.
.	.	.	16B-\	.	8r	.	8d\	in	.	.	.	.	.	.	.
.	.	.	16A\JJ	.	.	.	.	.	.	.	.	.	.	.	.
=51	=51	=51	=51	=51	=51	=51	=51	=51	=51	=51	=51	=51	=51	=51	=51
!	!	!	!LO:LB:g=original	!	!	!	!	!	!	!	!	!	!	!	!
2r	2D\	ve-	16G\LL	-mi-	16B-\LL	Do-	(4d\	no-	2ryy	2ryy	2ryy	2r	2r	2r	2r
.	.	.	16A\	.	16c\	.	.	.	.	.	.	.	.	.	.
.	.	.	16G\	-ne	16B-\	.	.	.	.	.	.	.	.	.	.
.	.	.	16F\JJ	.	16A\JJ	.	.	.	.	.	.	.	.	.	.
.	.	.	16E\LL	Do-	16G/LL	.	8.c\)	.	.	.	.	.	.	.	.
.	.	.	16F\	.	16A/	.	.	.	.	.	.	.	.	.	.
.	.	.	16E\	.	16G/	.	.	.	.	.	.	.	.	.	.
.	.	.	16D\JJ	.	16F/JJ	.	16c\	-mi-	.	.	.	.	.	.	.
=52	=52	=52	=52	=52	=52	=52	=52	=52	=52	=52	=52	=52	=52	=52	=52
2r	2C/	.	4C\	.	4E/	.	[4c\	-ne	2ryy	2ryy	2ryy	2r	2r	2r	2r
.	.	.	4E\	-mi-	4G/	-mi-	16c\LL]	.	.	.	.	.	.	.	.
.	.	.	.	.	.	.	16c#X\	.	.	.	.	.	.	.	.
.	.	.	.	.	.	.	16d\	.	.	.	.	.	.	.	.
.	.	.	.	.	.	.	16cn\JJ	.	.	.	.	.	.	.	.
=53	=53	=53	=53	=53	=53	=53	=53	=53	=53	=53	=53	=53	=53	=53	=53
!	!	!	!	!	!LO:LB:g=original	!	!LO:LB:g=original	!	!	!	!	!	!	!	!
2r	4C/	-nit	4E\	-ne	4G/	-ni	16B-\LL	Do-	2ryy	2ryy	2ryy	2r	2r	2r	2r
.	.	.	.	.	.	.	16A\	.	.	.	.	.	.	.	.
.	.	.	.	.	.	.	16G\	.	.	.	.	.	.	.	.
.	.	.	.	.	.	.	16A\JJ	.	.	.	.	.	.	.	.
.	4r	.	4r	.	4r	.	16B-\LL	-mi-	.	.	.	.	.	.	.
.	.	.	.	.	.	.	16c\	.	.	.	.	.	.	.	.
.	.	.	.	.	.	.	16d\	-ni	.	.	.	.	.	.	.
.	.	.	.	.	.	.	16e\JJ	.	.	.	.	.	.	.	.
=54	=54	=54	=54	=54	=54	=54	=54	=54	=54	=54	=54	=54	=54	=54	=54
*2\right	*	*	*	*	*	*	*	*	*	*	*	*2\right	*2\right	*2\right	*2\right
!LO:TX:a:t=problem:laseczki nut w dół z prawej strony	!	!	!	!	!	!	!	!	!	!	!	!LO:TX:a:t=problem:laseczki nut w dół z prawej strony	!LO:TX:a:t=problem:laseczki nut w dół z prawej strony	!LO:TX:a:t=problem:laseczki nut w dół z prawej strony	!LO:TX:a:t=problem:laseczki nut w dół z prawej strony
2F\	2F\	Be-	2A\	Be-	2c\	Be-	2f\	Be-	2ryy	2ryy	2ryy	2cc\	2cc\	2f\	2a\
=55	=55	=55	=55	=55	=55	=55	=55	=55	=55	=55	=55	=55	=55	=55	=55
2BB-X/	2BB-/	-ne-	4B-\	.	2d\	-ne-	2g\	-ne-	2ryy	2ryy	2ryy	2b-X\	2dd\	2g\	2g\
.	.	.	4d\	-ne-	.	.	.	.	.	.	.	.	.	.	.
=56	=56	=56	=56	=56	=56	=56	=56	=56	=56	=56	=56	=56	=56	=56	=56
!	!LO:LB:g=original	!	!	!	!	!	!	!	!	!	!	!	!	!	!
2AA/	2AA/	-dic-	2c#X\	-dic-	2e\	-dic-	4a\	-dic-	2ryy	2ryy	2ryy	4e/	2ee\	4a\	2a\
.	.	.	.	.	.	.	4g\	.	.	.	.	4ee\	.	4g\	.
=57	=57	=57	=57	=57	=57	=57	=57	=57	=57	=57	=57	=57	=57	=57	=57
4BB-/	4BB-/	-tus	4d\	-tus	4d\	-tus	4f\	-tus	2ryy	2ryy	2ryy	4dd\	4dd\	4f\	4f\
8r	8r	.	8r	.	8r	.	8r	.	.	.	.	8r	8r	8r	8r
8FF/	8FF/	qui	8cn\	qui	8f\	qui	8a\	qui	.	.	.	8cc\	8cc\	8f\	8a\
=58	=58	=58	=58	=58	=58	=58	=58	=58	=58	=58	=58	=58	=58	=58	=58
2GG/	2GG/	ve-	2Bn\	ve-	2d\	ve-	4g\	ve-	2ryy	2ryy	2ryy	2b-\	2dd\	4g\	2g\
.	.	.	.	.	.	.	4f\	.	.	.	.	.	.	4f\	.
=59	=59	=59	=59	=59	=59	=59	=59	=59	=59	=59	=59	=59	=59	=59	=59
!	!	!	!LO:LB:g=original	!	!	!	!	!	!	!	!	!	!	!	!
4.AA/	4.AA/	-nit	4.c\	-nit	4.c\	-nit	4.e\	-nit	2ryy	2ryy	2ryy	4.cc\	4.cc\	4.e\	4.cc\
8FF/	8FF/	in	8A\	in	8c\	in	8f\	in	.	.	.	8cc\	8cc\	8f\	8a\
=60	=60	=60	=60	=60	=60	=60	=60	=60	=60	=60	=60	=60	=60	=60	=60
!	!	!	!	!	!	!	!	!	!	!	!	!	!	!LO:LB:g=original	!
2C/	8C/	no-	8G\	no-	8B-\	no-	16f\LL	no-	2ryy	2ryy	2ryy	2cc\	2cc\	2g\	2b-\
.	.	.	.	.	.	.	16e\JJ	.	.	.	.	.	.	.	.
.	16C/	-mi-	16G\	-mi-	16B-\	-mi-	16d\	-mi-	.	.	.	.	.	.	.
.	16C/	-ne	16G\	-ne	16B-\	-ne	16c\	-ne	.	.	.	.	.	.	.
.	8.C/	Do-	8.E\	Do-	8.G\	Do-	16c\LL	Do-	.	.	.	.	.	.	.
.	.	.	.	.	.	.	16B-\JJ	.	.	.	.	.	.	.	.
.	.	.	.	.	.	.	16A\LL	-mi-	.	.	.	.	.	.	.
.	16C/	-mi-	16E\	-mi-	16G\	-mi-	16G\JJ	.	.	.	.	.	.	.	.
=61	=61	=61	=61	=61	=61	=61	=61	=61	=61	=61	=61	=61	=61	=61	=61
!	!	!	!	!	!	!	!LO:LB:g=original	!	!	!	!	!LO:LB:g=original	!	!	!
4F\	4F\	-ni,	4F\	-ni	4F/	-ni	4F/	-ni	2ryy	2ryy	2ryy	4cc\	4cc\	4f\	4a\
4C\	8.C/	be-	8.F\	Be-	8.A\	Be-	8.c\	Be-	.	.	.	8.cc\L	8.cc\L	8.f\L	8.a\L
.	16C/	-ne-	16G\	-ne-	16B-\	-ne-	16e\	-ne-	.	.	.	16cc\Jk	16cc\Jk	16c\Jk	16g\Jk
=62	=62	=62	=62	=62	=62	=62	=62	=62	=62	=62	=62	=62	=62	=62	=62
!	!	!	!LO:N:vis=4	!	!LO:LB:g=original	!	!	!	!	!	!	!	!	!	!
4F\	8FF/	-dic-	8F\	-dic-	8A\	-dic-	8f\	-dic-	2ryy	2ryy	2ryy	4cc\	4cc\	4f\	4a\
.	16FF/	-tus	16A\	-tus	16c\	-tus	16f\	-tus	.	.	.	.	.	.	.
.	16r	.	16r	.	16r	.	16r	.	.	.	.	.	.	.	.
4C\	8.C/	be-	8.F\	Be-	8.A\	Be-	8.c\	Be-	.	.	.	8.cc\L	8.cc\L	8.f\L	8.a\L
.	16C/	-ne-	16G\	-ne-	16B-\	-ne-	16e\	-ne-	.	.	.	16cc\Jk	16cc\Jk	16c\Jk	16g\Jk
=63	=63	=63	=63	=63	=63	=63	=63	=63	=63	=63	=63	=63	=63	=63	=63
!	!LO:LB:g=original	!	!	!	!	!	!	!	!	!	!	!	!LO:LB:g=original	!	!LO:LB:g=original
[2FF/	2FF/ 2F	-dic-	(4.F\	-dic-	(4.A\	-dic-	[2f\	-dic-	2ryy	2ryy	2ryy	[2cc\	[2cc\	2A/	2f\
.	.	.	8A\)	.	8c\)	.	.	.	.	.	.	.	.	.	.
=64	=64	=64	=64	=64	=64	=64	=64	=64	=64	=64	=64	=64	=64	=64	=64
4FF/]	4FF/ 4F	-tus	4A\	-tus	4c\	-tus	4f\]	-tus	2ryy	2ryy	2ryy	4cc\]	4cc\]	4A/	4f\
!LO:TX:a:t=problem:brak pauzy ćwierćnutowej	!	!	!	!	!	!	!	!	!	!	!	!	!	!	!
4ryy	4r	.	4r	.	4r	.	4r	.	.	.	.	4r	4r	4r	4r
==	==	==	==	==	==	==	==	==	==	==	==	==	==	==	==
*-	*-	*-	*-	*-	*-	*-	*-	*-	*-	*-	*-	*-	*-	*-	*-
!!!system-decoration: [(g1)]g2[(g3)]g4
!!!RDF**kern: <= below
!!!RDF**kern: >= above
!!!ENC: Anna Matuszewska
!!!END: 2020-06-17
